icons/chatgpt-light.svg

<svg width="256" height="256" viewBox="0 0 256 256" fill="none" xmlns="http://www.w3.org/2000/svg">
<rect width="256" height="256" rx="50" fill="#F4F2ED"/>
<path d="M197.436 113.486C199.256 108.101 199.887 102.386 199.287 96.7338C198.688 91.0816 196.871 85.6263 193.962 80.7432C189.624 73.3143 183.043 67.4524 175.164 64.0003C167.242 60.521 158.429 59.6136 149.965 61.406C146.133 57.1485 141.439 53.7552 136.195 51.4517C130.936 49.1406 125.249 47.9645 119.505 48.0003C110.865 47.9762 102.437 50.6667 95.4092 55.6917C88.4273 60.6795 83.2173 67.7635 80.5359 75.9146C74.908 77.0497 69.5841 79.3633 64.9141 82.7032C60.2656 86.024 56.3809 90.3006 53.5207 95.246C49.1736 102.622 47.3154 111.201 48.2209 119.714C49.1265 128.228 52.7476 136.224 58.5489 142.52C56.7304 147.904 56.0987 153.618 56.6974 159.269C57.2961 164.92 59.111 170.374 62.0172 175.258C66.355 182.686 72.9367 188.548 80.8159 192C88.7372 195.48 97.5501 196.387 106.014 194.595C109.844 198.852 114.536 202.245 119.779 204.549C125.036 206.858 130.727 208.035 136.481 208C145.125 208.03 153.56 205.342 160.593 200.315C167.583 195.323 172.798 188.23 175.478 180.069C181.106 178.936 186.43 176.625 191.1 173.286C195.747 169.963 199.63 165.685 202.487 160.738C206.828 153.361 208.681 144.784 207.771 136.274C206.862 127.764 203.238 119.772 197.436 113.48V113.486ZM136.812 197.543C128.744 197.543 122.499 195.098 117.042 190.6C117.288 190.469 117.722 190.235 118.002 190.063L150.285 171.663C151.089 171.211 151.758 170.552 152.224 169.756C152.69 168.96 152.936 168.054 152.937 167.132V122.217L166.587 129.989C166.657 130.025 166.718 130.078 166.763 130.143C166.809 130.207 166.839 130.282 166.85 130.36V167.549C166.85 184.418 152.617 197.543 136.812 197.543ZM71.2108 170.023C67.6523 163.97 66.366 156.847 67.5825 149.932C67.8225 150.075 68.2396 150.332 68.5425 150.503L100.826 168.903C101.632 169.369 102.546 169.614 103.477 169.614C104.408 169.614 105.322 169.369 106.128 168.903L145.543 146.446V161.989C145.548 162.068 145.532 162.148 145.498 162.219C145.464 162.291 145.413 162.354 145.349 162.4L112.717 181C105.717 184.971 97.4406 186.042 89.661 183.983C81.9079 181.948 75.2796 176.93 71.2108 170.023ZM62.7029 100.48C66.2733 94.3811 71.8704 89.728 78.5189 87.3317V125.229C78.51 126.153 78.7519 127.063 79.2187 127.861C79.6856 128.659 80.36 129.315 81.1702 129.76L120.579 152.218L106.934 159.989C106.867 160.033 106.791 160.06 106.711 160.068C106.632 160.076 106.551 160.064 106.477 160.035L73.8278 141.423C70.3895 139.469 67.3706 136.855 64.9439 133.732C62.5172 130.609 60.7304 127.038 59.6859 123.223C58.6532 119.422 58.3875 115.454 58.9045 111.549C59.4215 107.644 60.7165 103.881 62.7029 100.48ZM174.826 126.229L135.412 103.772L149.057 96.0003C149.124 95.9565 149.2 95.9294 149.28 95.9215C149.359 95.9135 149.44 95.9249 149.514 95.9546L182.157 114.555C187.14 117.392 191.211 121.59 193.894 126.657C196.56 131.701 197.716 137.407 197.221 143.091C196.727 148.775 194.603 154.196 191.105 158.703C187.587 163.247 182.851 166.699 177.449 168.658V130.755C177.459 129.834 177.221 128.928 176.759 128.132C176.298 127.335 175.63 126.678 174.826 126.229ZM188.408 106.04C188.091 105.848 187.771 105.659 187.448 105.475L155.165 87.0746C154.359 86.6103 153.444 86.3659 152.514 86.3659C151.583 86.3659 150.669 86.6103 149.863 87.0746L110.448 109.532V93.9775C110.443 93.8981 110.459 93.8188 110.493 93.7469C110.527 93.675 110.578 93.6128 110.642 93.566L143.28 74.9889C148.29 72.1407 153.999 70.7594 159.757 71.003C165.514 71.2465 171.087 73.105 175.838 76.366C180.558 79.6057 184.255 84.1257 186.494 89.3946C188.723 94.6517 189.385 100.423 188.408 106.04ZM103.031 133.766L89.3753 125.995C89.3039 125.96 89.2424 125.907 89.1964 125.842C89.1505 125.778 89.1216 125.702 89.1125 125.623V88.4289C89.1182 82.7317 90.7695 77.1546 93.8664 72.3489C96.9816 67.5291 101.403 63.6943 106.614 61.2917C111.848 58.8785 117.654 57.9846 123.371 58.712C129.089 59.4395 134.486 61.759 138.949 65.406C138.626 65.5768 138.306 65.754 137.989 65.9374L105.706 84.3374C104.902 84.7903 104.232 85.4483 103.765 86.2443C103.298 87.0404 103.051 87.946 103.049 88.8689L103.031 133.766ZM110.442 117.995L127.995 108L145.549 118V138L127.995 147.995L110.442 137.995V117.995Z" fill="black"/>
</svg>

<svg xmlns="http://www.w3.org/2000/svg" width="256" height="256" fill="none"><rect width="256" height="256" fill="#F4F2ED" rx="50"/><path fill="#000" d="M197.436 113.486a39.35 39.35 0 0 0 1.851-16.752 39.35 39.35 0 0 0-5.325-15.99A40.67 40.67 0 0 0 175.164 64a41.36 41.36 0 0 0-25.199-2.594 40.4 40.4 0 0 0-13.77-9.954A40.85 40.85 0 0 0 119.505 48a41.23 41.23 0 0 0-24.096 7.692 40.35 40.35 0 0 0-14.873 20.223 40.7 40.7 0 0 0-15.622 6.788 40.1 40.1 0 0 0-11.393 12.543 39.88 39.88 0 0 0 5.028 47.274 39.38 39.38 0 0 0 3.468 32.738A40.67 40.67 0 0 0 80.816 192a41.35 41.35 0 0 0 25.198 2.595 40.35 40.35 0 0 0 13.765 9.954A40.9 40.9 0 0 0 136.481 208a41.2 41.2 0 0 0 24.112-7.685 40.35 40.35 0 0 0 14.885-20.246 40.65 40.65 0 0 0 15.622-6.783 40.05 40.05 0 0 0 11.387-12.548 39.88 39.88 0 0 0-5.051-47.258zm-60.624 84.057c-8.068 0-14.313-2.445-19.77-6.943.246-.131.68-.365.96-.537l32.283-18.4a5.2 5.2 0 0 0 2.652-4.531v-44.915l13.65 7.772q.107.055.176.154a.5.5 0 0 1 .087.217v37.189c0 16.869-14.233 29.994-30.038 29.994m-65.601-27.52a29.54 29.54 0 0 1-3.629-20.091c.24.143.658.4.96.571l32.284 18.4a5.3 5.3 0 0 0 5.302 0l39.415-22.457v15.543a.47.47 0 0 1-.194.411L112.717 181a30.77 30.77 0 0 1-23.056 2.983 30.36 30.36 0 0 1-18.45-13.96m-8.508-69.543a30.2 30.2 0 0 1 15.816-13.148v37.897a5.12 5.12 0 0 0 2.651 4.531l39.409 22.458-13.645 7.771a.5.5 0 0 1-.457.046l-32.65-18.612a30.06 30.06 0 0 1-14.141-18.2 29.7 29.7 0 0 1-.782-11.674 29.7 29.7 0 0 1 3.799-11.069m112.123 25.749-39.414-22.457L149.057 96a.5.5 0 0 1 .457-.045l32.643 18.6a30.17 30.17 0 0 1 11.737 12.102 29.66 29.66 0 0 1-2.789 32.046 30.36 30.36 0 0 1-13.656 9.955v-37.903a5.11 5.11 0 0 0-2.623-4.526m13.582-20.189a42 42 0 0 0-.96-.565l-32.283-18.4a5.31 5.31 0 0 0-5.302 0l-39.415 22.457V93.978a.47.47 0 0 1 .194-.412l32.638-18.577a30.71 30.71 0 0 1 32.558 1.377 30.06 30.06 0 0 1 10.656 13.029 29.6 29.6 0 0 1 1.914 16.645m-85.377 27.726-13.656-7.771a.48.48 0 0 1-.263-.372V88.429a29.74 29.74 0 0 1 4.754-16.08 30.27 30.27 0 0 1 12.748-11.057 30.75 30.75 0 0 1 32.335 4.114q-.485.256-.96.531l-32.283 18.4a5.22 5.22 0 0 0-2.657 4.532zm7.411-15.771L127.995 108l17.554 10v20l-17.554 9.995-17.553-10z"/></svg>
